icons/vagrant.svg

<?xml version="1.0" encoding="UTF-8"?>
<svg width="256px" height="266px" viewBox="0 0 256 266" version="1.1" xmlns="http://www.w3.org/2000/svg" xmlns:xlink="http://www.w3.org/1999/xlink" preserveAspectRatio="xMidYMid">
    <g>
        <path d="M221.101749,0 L255.996276,20.4099019 L197.80928,54.2496961 L197.809,54.29 L255.996276,20.4099019 L255.996276,44.663227 L177.863239,236.260077 L127.976,265.06 L127.976049,265.063662 L127.973,265.061 L127.970527,265.063662 L127.97,265.06 L78.5637649,236.480963 L0,45.4142407 L0,20.4099019 L34.9000488,0 L93.1312219,34.1490351 L92.932,34.263 L93.0870447,34.3257442 L93.0870447,57.3862827 L127.976049,138.981713 L127.976,166.242 L127.981571,166.239093 L127.981571,138.981713 L162.914753,57.3862827 L162.914753,34.1048578 L162.95893,34.1048578 L221.101749,0 Z M71.579,46.548 L58.192518,54.2496961 L58.192,54.29 L71.579,46.548 Z" fill="#1159CC"></path>
        <polygon fill="#127EFF" points="221.101749 4.904663e-15 162.95893 34.1048578 162.914753 34.1048578 162.914753 57.3862827 127.981571 138.981713 127.981571 166.239093 104.733279 179.75734 58.192518 74.7921298 58.192518 54.2496961 93.1312219 34.1490351 34.9000488 0 0 20.4099019 0 45.4142407 78.5637649 236.480963 127.976049 265.063662 127.976049 193.275587 151.268518 179.75734 150.959277 179.580631 197.80928 74.7921298 197.80928 54.2496961 255.996276 20.4099019"></polygon>
    </g>
</svg>

<svg xmlns="http://www.w3.org/2000/svg" viewBox="0 0 255.996 265.064">
  <path fill="#1159cc" d="m221.102 0 34.894 20.41-58.187 33.84v.04l58.187-33.88v24.253L177.863 236.26l-49.887 28.8v.004l-.003-.003-.002.003-.001-.004-49.406-28.579L0 45.414V20.41L34.9 0l58.231 34.149-.199.114.155.063v23.06l34.889 81.596v27.26l.006-.003v-27.257l34.933-81.596V34.105h.044zM71.579 46.548 58.193 54.25l-.001.04z"/>
  <path fill="#127eff" d="M162.915 34.105v23.281l-34.933 81.596v27.257l-23.249 13.518-46.54-104.965V54.25L93.13 34.149 34.9 0 0 20.41v25.004l78.564 191.067 49.412 28.583v-71.788l23.293-13.519-.31-.176 46.85-104.789V54.25l58.187-33.84L221.102 0l-58.143 34.105z"/>
</svg>
